chrome/urlbar/permissions/screen.svg

<svg xmlns="http://www.w3.org/2000/svg" width="16" height="16" viewBox="0 0 16 16">
   <path
   style="fill:context-fill;fill-opacity:context-fill-opacity"
   d="M 2 2 C 0.89543 2 0 2.89543 0 4 L 0 12 C 0 13.1046 0.89543 14 2 14 L 14 14 C 15.1046 14 16 13.1046 16 12 L 16 4 C 16 2.89543 15.1046 2 14 2 L 2 2 z M 2 3 L 14 3 C 14.5523 3 15 3.44772 15 4 L 15 12 C 15 12.5523 14.5523 13 14 13 L 2 13 C 1.44772 13 1 12.5523 1 12 L 1 4 C 1 3.44772 1.44772 3 2 3 z M 8 4 C 7.8720325 4 7.7441144 4.0488494 7.6464844 4.1464844 L 5.1464844 6.6464844 C 4.9512144 6.8417444 4.9512144 7.1582556 5.1464844 7.3535156 C 5.3417444 7.5487856 5.6582556 7.5487856 5.8535156 7.3535156 L 7.5 5.7070312 L 7.5 11.5 C 7.5 11.7761 7.72386 12 8 12 C 8.2761 12 8.5 11.7761 8.5 11.5 L 8.5 5.7070312 L 10.146484 7.3535156 C 10.341784 7.5487856 10.658216 7.5487856 10.853516 7.3535156 C 11.048716 7.1582556 11.048716 6.8417444 10.853516 6.6464844 L 8.3535156 4.1464844 C 8.2558656 4.0488494 8.1279675 4 8 4 z " />
</svg>

<svg xmlns="http://www.w3.org/2000/svg" width="16" height="16">
  <path style="fill:context-fill;fill-opacity:context-fill-opacity" d="M2 2a2 2 0 0 0-2 2v8a2 2 0 0 0 2 2h12a2 2 0 0 0 2-2V4a2 2 0 0 0-2-2H2zm0 1h12a1 1 0 0 1 1 1v8a1 1 0 0 1-1 1H2a1 1 0 0 1-1-1V4a1 1 0 0 1 1-1zm6 1a.498.498 0 0 0-.354.146l-2.5 2.5a.5.5 0 1 0 .708.708L7.5 5.707V11.5a.5.5 0 0 0 1 0V5.707l1.646 1.647a.5.5 0 1 0 .708-.708l-2.5-2.5A.498.498 0 0 0 8 4z"/>
</svg>
